X:7
T: ALLE LEUTE SOLLENS WISSEN
N: E0619A
O: Europa, Mitteleuropa, Deutschland, Hessen, Wetterau, Dill - Kreis
R: Liebes - Lied, Abschied
M: 4/4
L: 1/8
K: G
 | Bdd2Bdd2 | cBcdc2B2 |
Bdd2Bdd2 | cBcdc2B2 |
e2e2g2fe | d2d2g2z2 |
AABce2dc | d2BBB4

@@@ Tune index: 4320
